X:1
T:Title
%%score { ( 1 3 ) | ( 2 4 5 ) }
L:1/8
M:3/4
K:Eb
V:1 treble nm="Grand Piano"
V:3 treble 
V:2 bass 
V:4 bass 
V:5 bass 
V:1
 z2 z2[Q:1/4=100] [GB]2 | [_G=A]>[=GB] [Ge]2 G2 | _G>=G [GB]2 E2 | F3 G A[Fc] |[M:2/4] c2 B2 | %5
[M:1/4] [DB]2 |[M:3/4] [E=A]>[EB] [Ge]2 G2 | _G>=G [GB]2 [_Gc]2 | d3 B =Ac |[M:2/4] [B,DB]4 | %10
[M:1/4] z2 |[M:3/4] [FA]>B [Ac]2 [FA]2 | [EG]>A [GB]2 [Ge]2 | [Fd]>e [Af]2 [Ge]2 | %14
[M:2/4] [Ge]2 [Fd]2 |[M:1/4] d2 |[M:3/4] e>e d2 =B2 | d>d c2 G2 | [GB]>[GB] A2 E2 |[M:2/4] G4 | %20
[M:1/4] G2 |[M:3/4] [=EG]>[EG] [Ec]2 [EB]2 |[M:7/8] A>c f3 e2 |[M:3/4] e>e G2 [DF]2 | E6 | %25
[M:1/4] E2 |[M:3/4] [=B,D][CE] [CA][CE] [_DB][DE] | [Ec]4 z2 | [Ge]4 z2 |[M:2/4] A2 z2 | %30
[M:1/4] z [CE] |[M:3/4] [=B,D][CE] [CA][CE] [_DB][DE] | [Ec]4 z2 | [GB]4 z2 |[M:2/4] E4[K:bass] | %35
[M:1/4] z E, |[M:3/4] B,[K:treble]G GG GG | CA AA AA | z B BB Ac |[M:5/8] z BB BB | %40
[M:1/8][K:bass] E, |[M:3/4] B,[K:treble]G GG EG | CA AA AA | z B BB [DAB][DAB] | %44
[M:5/8] [EGB]ee ee |[M:1/8] E |[M:3/4] [Ee][Ee] [Ec]2 [EA]2 |[M:7/8] [EG][_DF] [F_d]3 [Fd]2 | %48
[M:3/4] [Ec][Ec] [EGc]2 [_DGB]2 | [CEA]6 |[M:1/4] [GB]2 |[M:3/4] [_G=A]>[=GB] [Ge]2 G2 | %52
 _G>=G [GB]2 E2 | F3 G A[Fc] |[M:2/4] c2 B2 |[M:1/4] [DB]2 |[M:3/4] [E=A]>[EB] [Ge]2 G2 | %57
 _G>=G [GB]2 [_Gc]2 | d3 B =Ac |[M:2/4] [B,DB]4 |[M:1/4] z2 |[M:3/4] [FA]>B [Ac]2 [FA]2 | %62
 [EG]>A [GB]2 [Ge]2 | [Fd]>e [Af]2 [Ge]2 |[M:2/4] [Ge]2 [Fd]2 |[M:1/4] d2 |[M:3/4] e>e d2 =B2 | %67
 d>d c2 G2 | [GB]>[GB] A2 E2 |[M:2/4] G4 |[M:1/4] G2 |[M:3/4] [=EG]>[EG] [Ec]2 [EB]2 | %72
[M:7/8] A>c f3 e2 |[M:3/4] e>e G2 [DF]2 |[M:7/4] E6 z2 z2 z4 |] %75
V:2
 z2 z2 [E,E]2 | [E,E]>[E,E] [E,B,]2 [E,B,E]2 | [E,=A,E]>[E,B,E] [E,E]2 [G,B,]2 | %3
 [A,B,D]3 [G,B,=E] [F,A,F][E,A,] |[M:2/4] [D,A,]4 |[M:1/4] [B,,A,]2 | %6
[M:3/4] [E,_G,]>[E,=G,] [E,B,]2 [E,B,E]2 | [E,=A,E]>[E,B,E] [E,E]2 [E,B,]2 | %8
 [F,B,F]3 [F,DF] [F,CE][F,=A,E] |[M:2/4] B,,4 |[M:1/4][K:treble] B2 | %11
[M:3/4][K:bass] z z/[K:treble] G/ B,B, B,B, | z z/[K:treble] F/ B,B, B,B, | %13
 z z/[K:treble] G/ B,B, B,B, |[M:2/4][K:bass] z B, B,2 |[M:1/4][K:treble] [A,B,F]2 | %16
[M:3/4] [G,B,E]>[G,B,E] [G,=B,F]2 [G,DF]2 | [A,=B,F]>[A,B,F][K:bass] [A,CE]2 [=E,_D]2 | %18
 [F,C]>[F,C] [F,CF]2[K:treble] [A,C]2 |[M:2/4] [=B,D]2 C2 |[M:1/4] [G,DF]2 | %21
[M:3/4][K:bass] [C,C]>[C,C] [C,G,]2 [C,C]2 |[M:7/8] [F,CF]>[K:treble][G,B,=E] [A,CF]3 [A,=B,F]2 | %23
[M:3/4] [G,B,E]>[A,CF][K:bass] [B,E]2 [B,,A,]2 | [E,G,]6 |[M:1/4] C2 |[M:3/4] A,,E, A,E, G,E, | %27
 A,,E, A,E, A,E, | E,,E, G,E, B,E, |[M:2/4] A,,E, A,E, |[M:1/4] A,E, |[M:3/4] A,,E, A,E, G,E, | %32
 A,,E, A,E, A,E, | z2 z[K:treble] [B,_G] [B,F][K:bass][A,D] |[M:2/4] .[E,G,]2 z2 |[M:1/4] z2 | %36
[M:3/4] z [=A,_DE] [DE][DE] [DE][E,DE] | z [=B,E] EE E[E,CE] | %38
 z[K:treble] [EG] [EG][B,EG] [CE][A,EA] |[M:5/8] z [EG][EG] [EG][EG] |[M:1/8] z | %41
[M:3/4] z[K:bass] [=A,_DE] [DE][DE] D[E,DE] | z[K:treble] [=B,E] EE E[CE] | %43
 z [DA] [DA][A,DA][K:bass] G,F, |[M:5/8] z EE EE |[M:1/8] [_D,G,] | %46
[M:3/4] [C,A,][C,A,] [A,,A,]2 [C,A,]2 |[M:7/8] [_D,A,][D,A,] [D,A,]3 [D,A,]2 | %48
[M:3/4] [E,A,][E,A,] E,2 E,2 | A,,6 |[M:1/4] [E,E]2 |[M:3/4] [E,E]>[E,E] [E,B,]2 [E,B,E]2 | %52
 [E,=A,E]>[E,B,E] [E,E]2 [G,B,]2 | [A,B,D]3 [G,B,=E] [F,A,F][E,A,] |[M:2/4] [D,A,]4 | %55
[M:1/4] [B,,A,]2 |[M:3/4] [E,_G,]>[E,=G,] [E,B,]2 [E,B,E]2 | [E,=A,E]>[E,B,E] [E,E]2 [E,B,]2 | %58
 [F,B,F]3 [F,DF] [F,CE][F,=A,E] |[M:2/4] B,,4 |[M:1/4][K:treble] B2 | %61
[M:3/4][K:bass] z z/[K:treble] G/ B,B, B,B, | z z/[K:treble] F/ B,B, B,B, | %63
 z z/[K:treble] G/ B,B, B,B, |[M:2/4][K:bass] z B, B,2 |[M:1/4][K:treble] [A,B,F]2 | %66
[M:3/4] [G,B,E]>[G,B,E] [G,=B,F]2 [G,DF]2 | [A,=B,F]>[A,B,F][K:bass] [A,CE]2 [=E,_D]2 | %68
 [F,C]>[F,C] [F,CF]2[K:treble] [A,C]2 |[M:2/4] [=B,D]2 C2 |[M:1/4] [G,DF]2 | %71
[M:3/4][K:bass] [C,C]>[C,C] [C,G,]2 [C,C]2 |[M:7/8] [F,CF]>[K:treble][G,B,=E] [A,CF]3 [A,=B,F]2 | %73
[M:3/4] [G,B,E]>[A,CF][K:bass] [B,E]2 [B,,A,]2 |[M:7/4] [E,G,]6 z2 z2 z4 |] %75
V:3
 x6 | x6 | x6 | x6 |[M:2/4] F4 |[M:1/4] x2 |[M:3/4] x6 | x6 | x6 |[M:2/4] x4 |[M:1/4] x2 | %11
[M:3/4] x6 | x6 | x6 |[M:2/4] x4 |[M:1/4] x2 |[M:3/4] x6 | x6 | x6 |[M:2/4] z2 E2 |[M:1/4] x2 | %21
[M:3/4] x6 |[M:7/8] x7 |[M:3/4] x6 | x6 |[M:1/4] x2 |[M:3/4] x6 | z2 .C2 .[CEc]2 | %28
 z2 _D[F_d] [DF][DG] |[M:2/4] C2- [CE]2 |[M:1/4] x2 |[M:3/4] x6 | z2 .C2 .[CAc]2 | z B, B,=A _AF | %34
[M:2/4] z[K:bass] E, E,2 |[M:1/4] x2 |[M:3/4] x[K:treble] x5 | x6 | _D4 z2 |[M:5/8] B,- B,3 z | %40
[M:1/8][K:bass] x |[M:3/4] x[K:treble] x5 | x6 | B,4 z2 |[M:5/8] x5 |[M:1/8] x |[M:3/4] x6 | %47
[M:7/8] x7 |[M:3/4] x6 | x6 |[M:1/4] x2 |[M:3/4] x6 | x6 | x6 |[M:2/4] F4 |[M:1/4] x2 |[M:3/4] x6 | %57
 x6 | x6 |[M:2/4] x4 |[M:1/4] x2 |[M:3/4] x6 | x6 | x6 |[M:2/4] x4 |[M:1/4] x2 |[M:3/4] x6 | x6 | %68
 x6 |[M:2/4] z2 E2 |[M:1/4] x2 |[M:3/4] x6 |[M:7/8] x7 |[M:3/4] x6 |[M:7/4] x14 |] %75
V:4
 x6 | x6 | x6 | x6 |[M:2/4] x4 |[M:1/4] x2 |[M:3/4] x6 | x6 | x6 |[M:2/4] x4 | %10
[M:1/4][K:treble] x2 |[M:3/4][K:bass] z B,[K:treble] z2 z2 | z B,[K:treble] z2 z2 | %13
 z B,[K:treble] z2 z2 |[M:2/4][K:bass] B,,4 |[M:1/4][K:treble] x2 |[M:3/4] x6 | x2[K:bass] x4 | %18
 x4[K:treble] x2 |[M:2/4] G,4 |[M:1/4] x2 |[M:3/4][K:bass] x6 |[M:7/8] x3/2[K:treble] x11/2 | %23
[M:3/4] x2[K:bass] x4 | x6 |[M:1/4] x2 |[M:3/4] x6 | x6 | x6 |[M:2/4] x4 |[M:1/4] x2 |[M:3/4] x6 | %32
 x6 | B,,6[K:treble][K:bass] |[M:2/4] x4 |[M:1/4] x2 |[M:3/4] z2 B,4 | z2 C4 | x[K:treble] x5 | %39
[M:5/8] x5 |[M:1/8] x |[M:3/4] z2[K:bass] B,4 | z2[K:treble] C4 | x4[K:bass] x2 | %44
[M:5/8] E,- E,3 z |[M:1/8] x |[M:3/4] x6 |[M:7/8] x7 |[M:3/4] x6 | x6 |[M:1/4] x2 |[M:3/4] x6 | %52
 x6 | x6 |[M:2/4] x4 |[M:1/4] x2 |[M:3/4] x6 | x6 | x6 |[M:2/4] x4 |[M:1/4][K:treble] x2 | %61
[M:3/4][K:bass] z B,[K:treble] z2 z2 | z B,[K:treble] z2 z2 | z B,[K:treble] z2 z2 | %64
[M:2/4][K:bass] B,,4 |[M:1/4][K:treble] x2 |[M:3/4] x6 | x2[K:bass] x4 | x4[K:treble] x2 | %69
[M:2/4] G,4 |[M:1/4] x2 |[M:3/4][K:bass] x6 |[M:7/8] x3/2[K:treble] x11/2 |[M:3/4] x2[K:bass] x4 | %74
[M:7/4] x14 |] %75
V:5
 x6 | x6 | x6 | x6 |[M:2/4] x4 |[M:1/4] x2 |[M:3/4] x6 | x6 | x6 |[M:2/4] x4 | %10
[M:1/4][K:treble] x2 |[M:3/4][K:bass] B,,4[K:treble] z2 | B,,4[K:treble] z2 | B,,6[K:treble] | %14
[M:2/4][K:bass] x4 |[M:1/4][K:treble] x2 |[M:3/4] x6 | x2[K:bass] x4 | x4[K:treble] x2 | %19
[M:2/4] x4 |[M:1/4] x2 |[M:3/4][K:bass] x6 |[M:7/8] x3/2[K:treble] x11/2 |[M:3/4] x2[K:bass] x4 | %24
 x6 |[M:1/4] x2 |[M:3/4] x6 | x6 | x6 |[M:2/4] x4 |[M:1/4] x2 |[M:3/4] x6 | x6 | %33
 x3[K:treble] x2[K:bass] x |[M:2/4] x4 |[M:1/4] x2 |[M:3/4] x6 | x6 | x[K:treble] x5 |[M:5/8] x5 | %40
[M:1/8] x |[M:3/4] x[K:bass] x5 | x[K:treble] x5 | x4[K:bass] x2 |[M:5/8] x5 |[M:1/8] x | %46
[M:3/4] x6 |[M:7/8] x7 |[M:3/4] x6 | x6 |[M:1/4] x2 |[M:3/4] x6 | x6 | x6 |[M:2/4] x4 |[M:1/4] x2 | %56
[M:3/4] x6 | x6 | x6 |[M:2/4] x4 |[M:1/4][K:treble] x2 |[M:3/4][K:bass] B,,4[K:treble] z2 | %62
 B,,4[K:treble] z2 | B,,6[K:treble] |[M:2/4][K:bass] x4 |[M:1/4][K:treble] x2 |[M:3/4] x6 | %67
 x2[K:bass] x4 | x4[K:treble] x2 |[M:2/4] x4 |[M:1/4] x2 |[M:3/4][K:bass] x6 | %72
[M:7/8] x3/2[K:treble] x11/2 |[M:3/4] x2[K:bass] x4 |[M:7/4] x14 |] %75

